outputs/icons/audio_video/volume_mute_round.svg

<svg width="1200" height="1200" viewBox="0 0 1200 1200" fill="none" xmlns="http://www.w3.org/2000/svg"><g clip-path="url(#clip0_231_5123)"><path d="M350 499.988V699.99C350 727.49 372.5 749.99 400 749.99H550L714.5 914.49C746 945.99 800 923.49 800 878.99V320.488C800 275.988 746 253.489 714.5 284.988L550 449.988H400C372.5 449.988 350 472.488 350 499.988Z" fill="black"/></g><defs><clipPath id="clip0_231_5123"><path width="24" fill="white" d="M0 0H1200V1200H0V0z"/></clipPath></defs></svg>

<svg xmlns="http://www.w3.org/2000/svg" width="1200" height="1200" fill="none"><g clip-path="url(#a)"><path fill="#000" d="M350 499.988V699.99c0 27.5 22.5 50 50 50h150l164.5 164.5c31.5 31.5 85.5 9 85.5-35.5V320.488c0-44.5-54-66.999-85.5-35.5l-164.5 165H400c-27.5 0-50 22.5-50 50"/></g><defs><clipPath id="a"><path fill="#fff" d="M0 0h1200v1200H0z"/></clipPath></defs></svg>
